X: 25433
T: Marcha De L'Anton El Nenu
R: reel
M: 4/4
K: Dmajor
F4A2 (3GAG|F6F2|G4F2G2|E6E2|
F4A2 (3GAG|F6D/E/F/G/|F3E/G/ E3C/E/|D6E2:|
|:G4F2G2|E4F2G2|(A3A/)A/ B2G2|M:6/4
A3B/A//G//|M:4/4
F8|
B4G2B2|A3A dcdc|A4G3G|M:6/4
A3B/A//G//|M:4/4
F8:|

